src/_assets/_icons/_figma/icon-cake.svg

<svg fill="none" height="24" width="24" xmlns="http://www.w3.org/2000/svg"><path d="m20.875 8.68-8.799-4.68c-2.355.112-4.46 1.331-5.931 3.21a9.724 9.724 0 0 0 -.947 1.47zm0 3.281v-3.28h-15.676c-.521.991-.89 2.099-1.071 3.28h16.748zm0 7.031v-3.28h-16.678c.229 1.193.652 2.305 1.228 3.288h.473l14.979-.008z" fill="#fef9c3"/><path d="m20.876 15.711v-3.75h-16.749a11.062 11.062 0 0 0 .069 3.75z" fill="#ef4444"/><path d="m20.875 8.68v.5a.5.5 0 0 0 .235-.942zm-8.799-4.68.235-.441a.5.5 0 0 0 -.258-.058zm-5.931 3.21-.394-.307.394.308zm-.721 11.79-.431.253a.5.5 0 0 0 .431.247zm15.45.5a.5.5 0 1 0 0-1zm-15.45-1a.5.5 0 1 0 .001 1v-1zm15.452.492v.5a.5.5 0 0 0 .5-.5zm0-10.312h.5a.5.5 0 0 0 -.5-.5zm-15.678 0-.443-.232zm-1.071 3.281-.494-.075zm16.983-3.723-8.799-4.68-.47.883 8.799 4.68zm-9.057-4.737c-2.52.12-4.754 1.423-6.302 3.402l.788.616c1.393-1.78 3.37-2.915 5.561-3.02zm9.323 15.492v-3.283h-1v3.281h1zm0-7.032v-3.28h-1v3.28zm0 3.75v-3.75h-1v3.75zm-15.626-8.808c-.373.477-.707.994-.996 1.545l.885.465c.262-.498.563-.965.899-1.394zm15.126 1.277h-15.678v1h15.678zm-16.12.268a10.966 10.966 0 0 0 -1.123 3.438l.988.151a9.966 9.966 0 0 1 1.02-3.124l-.886-.465zm-1.123 3.438a11.56 11.56 0 0 0 -.133 1.75h1c0-.546.042-1.08.121-1.599zm-.133 1.75c0 .744.07 1.47.205 2.17l.982-.189c-.122-.637-.187-1.3-.187-1.98h-1zm.205 2.17c.24 1.249.682 2.414 1.288 3.447l.862-.506a9.865 9.865 0 0 1 -1.168-3.13l-.982.188zm17.17-7.626h-15.677v1h15.677zm-4.913 3.281h-11.835v1h11.835zm4.914 0h-4.914v1h4.914zm-10.529 3.75h-6.15v1h6.152v-1zm0 1h10.529v-1h-10.529zm-4.922 3.289h.473v-1h-.473zm.473 0 14.98-.008-.001-1-14.98.008zm-.472 0h.472v-1h-.472zm15.45-1h-14.979v1h14.978v-1z" fill="#854d0e"/></svg>

<?xml version="1.0" encoding="utf-8"?>
<!-- Generator: Adobe Illustrator 27.6.1, SVG Export Plug-In . SVG Version: 6.00 Build 0)  -->
<svg version="1.1" id="Layer_1" xmlns="http://www.w3.org/2000/svg" xmlns:xlink="http://www.w3.org/1999/xlink" x="0px" y="0px"
	 viewBox="0 0 24 24" style="enable-background:new 0 0 24 24;" xml:space="preserve">
<style type="text/css">
	.st0{fill:#FEF9C3;}
	.st1{fill:#EF4444;}
	.st2{fill:#854D0E;}
</style>
<path class="st0" d="M20.9,8.7L12.1,4C9.7,4.1,7.6,5.3,6.1,7.2c-0.4,0.5-0.7,1-0.9,1.5H20.9z M20.9,12V8.7H5.2
	c-0.5,1-0.9,2.1-1.1,3.3H20.9L20.9,12z M20.9,19v-3.3H4.2C4.4,16.9,4.8,18,5.4,19h0.5L20.9,19L20.9,19z"/>
<path class="st1" d="M20.9,15.7V12H4.1c-0.2,1.2-0.2,2.5,0.1,3.8H20.9z"/>
<path class="st2" d="M20.9,8.7v0.5c0.3,0,0.5-0.2,0.5-0.5c0-0.2-0.1-0.4-0.3-0.4L20.9,8.7z M12.1,4l0.2-0.4c-0.1,0-0.2-0.1-0.3-0.1
	L12.1,4z M6.1,7.2L5.8,6.9L6.1,7.2L6.1,7.2z M5.4,19L5,19.3c0.1,0.2,0.3,0.2,0.4,0.2V19z M20.9,19.5c0.3,0,0.5-0.2,0.5-0.5
	s-0.2-0.5-0.5-0.5V19.5z M5.4,18.5c-0.3,0-0.5,0.2-0.5,0.5c0,0.3,0.2,0.5,0.5,0.5L5.4,18.5L5.4,18.5z M20.9,19v0.5
	c0.3,0,0.5-0.2,0.5-0.5H20.9z M20.9,8.7h0.5c0-0.3-0.2-0.5-0.5-0.5V8.7z M5.2,8.7L4.8,8.4L5.2,8.7z M4.1,12l-0.5-0.1L4.1,12z
	 M21.1,8.2l-8.8-4.7l-0.5,0.9l8.8,4.7L21.1,8.2z M12.1,3.5C9.5,3.6,7.3,4.9,5.8,6.9l0.8,0.6c1.4-1.8,3.4-2.9,5.6-3L12.1,3.5z
	 M21.4,19v-3.3h-1V19L21.4,19L21.4,19z M21.4,12V8.7h-1V12H21.4z M21.4,15.7V12h-1v3.8H21.4z M5.7,6.9c-0.4,0.5-0.7,1-1,1.5l0.9,0.5
	c0.3-0.5,0.6-1,0.9-1.4L5.7,6.9z M20.9,8.2H5.2v1h15.7V8.2z M4.8,8.4c-0.6,1.1-0.9,2.2-1.1,3.4l1,0.2c0.2-1.1,0.5-2.1,1-3.1L4.8,8.4
	L4.8,8.4z M3.6,11.9c-0.1,0.6-0.1,1.2-0.1,1.8h1c0-0.5,0-1.1,0.1-1.6L3.6,11.9z M3.5,13.6c0,0.7,0.1,1.5,0.2,2.2l1-0.2
	c-0.1-0.6-0.2-1.3-0.2-2L3.5,13.6L3.5,13.6z M3.7,15.8c0.2,1.2,0.7,2.4,1.3,3.4l0.9-0.5c-0.6-1-1-2-1.2-3.1L3.7,15.8L3.7,15.8z
	 M20.9,8.2H5.2v1h15.7V8.2z M16,11.5H4.1v1H16V11.5z M20.9,11.5H16v1h4.9V11.5z M10.3,15.2H4.2v1h6.2L10.3,15.2L10.3,15.2z
	 M10.3,16.2h10.5v-1H10.3V16.2z M5.4,19.5h0.5v-1H5.4V19.5z M5.9,19.5l15,0l0-1l-15,0L5.9,19.5z M5.4,19.5h0.5v-1H5.4V19.5z
	 M20.9,18.5h-15v1h15L20.9,18.5L20.9,18.5z"/>
</svg>
